icons/chat-1-line.svg

<svg viewBox="0 0 24 24" fill="currentColor" xmlns="http://www.w3.org/2000/svg">
    <path d="M10 3H14C18.4183 3 22 6.58172 22 11C22 15.4183 18.4183 19 14 19V22.5C9 20.5 2 17.5 2 11C2 6.58172 5.58172 3 10 3ZM12 17H14C17.3137 17 20 14.3137 20 11C20 7.68629 17.3137 5 14 5H10C6.68629 5 4 7.68629 4 11C4 14.61 6.46208 16.9656 12 19.4798V17Z"/>
</svg>

<svg xmlns="http://www.w3.org/2000/svg" viewBox="0 0 24 24">
    <g>
        <path fill="none" d="M0 0h24v24H0z"/>
        <path d="M10 3h4a8 8 0 1 1 0 16v3.5c-5-2-12-5-12-11.5a8 8 0 0 1 8-8zm2 14h2a6 6 0 1 0 0-12h-4a6 6 0 0 0-6 6c0 3.61 2.462 5.966 8 8.48V17z"/>
    </g>
</svg>
